metawallet-ui/public/i/icons/copy-white.svg

<svg fill="none" height="16" width="14" xmlns="http://www.w3.org/2000/svg"><g fill="#fff"><path d="m10.28 16h-10.28v-12.997h3.734v2.017h-1.846v8.963h6.546v-.986h1.846z"/><path d="m9.525 0h-6.713v12.997h10.28v-8.874zm-4.825 10.98v-8.962h3.734v3.002h2.812v6.005h-6.546z"/></g></svg>

<svg class="icon" width="14" height="16" fill="none" xmlns="http://www.w3.org/2000/svg"><path d="M10.28 16H0V3.003h3.734V5.02H1.888v8.963h6.546v-.986h1.846V16z" fill="#fff"/><path d="M9.525 0H2.812v12.997h10.28V4.123L9.525 0zM4.7 10.98V2.018h3.734V5.02h2.812v6.005H4.7v-.045z" fill="#fff"/></svg>
